**kern	**kern	**dynam
*part1	*part1	*part1
*staff2	*staff1	*
*I"Piano	*	*
*clefF4	*clefG2	*
*k[]	*k[]	*
=1	=1	=1
[2AA	[2e [2a [2cc	.
=	=	=
2AA]	2e] 2a] 2cc]	.
=	=	=
*	*^	*
!	!	!	!LO:DY:a
(2CC 2C	(4cc	([2e 2g	>]
.	[4ee)	.	.
=	=	=	=
2EE) 2E	2ryy	2e]) 2g#X 2ee]	.
*	*v	*v	*
=||	=||	=||
!	!	!LO:DY:a
(4c	(4e 4a	p
4A	4e 4cc	.
=	=	=
4G#X	4e 4b	.
4E	4g#X 4ee	.
=	=	=
4A	4e 4cc	.
4c	4e 4a	.
=	=	=
4e)	4g#X) 4b	.
(4B	(4d#X 4f#X	.
=	=	=
4E)	4e) 4g#X 4b	.
(4BB	(4d#X 4f#X	.
=	=	=
*-	*-	*-
!!!system-decoration: {(s1,s2)}
